src/assets/apple-icon.svg

<svg width="24" height="24" viewBox="0 0 24 24" fill="none" xmlns="http://www.w3.org/2000/svg">
<g clip-path="url(#clip0_3938_4648)">
<path d="M18.5434 12.7628C18.5674 10.8928 19.5474 9.16579 21.1404 8.18679C20.1314 6.74479 18.5004 5.86379 16.7414 5.80879C14.8904 5.61479 13.0964 6.91579 12.1534 6.91579C11.1924 6.91579 9.74043 5.82779 8.17643 5.85979C6.11943 5.92679 4.24743 7.06779 3.24643 8.86679C1.11543 12.5568 2.70443 17.9808 4.74643 20.9638C5.76843 22.4248 6.96143 24.0558 8.52443 23.9988C10.0534 23.9358 10.6244 23.0238 12.4694 23.0238C14.2974 23.0238 14.8334 23.9988 16.4274 23.9618C18.0674 23.9348 19.1014 22.4948 20.0874 21.0198C20.8214 19.9788 21.3864 18.8288 21.7604 17.6118C19.8124 16.7878 18.5454 14.8788 18.5434 12.7628Z" fill="#232322"/>
<path d="M15.5319 3.847C16.4259 2.773 16.8669 1.393 16.7599 0C15.3939 0.144 14.1309 0.797 13.2249 1.829C12.3299 2.848 11.8759 4.18 11.9639 5.534C13.3489 5.548 14.6639 4.926 15.5319 3.847Z" fill="#232322"/>
</g>
<defs>
<clipPath id="clip0_3938_4648">
<rect width="24" height="24" fill="white"/>
</clipPath>
</defs>
</svg>

<svg xmlns="http://www.w3.org/2000/svg" width="24" height="24" fill="none"><g fill="#232322" clip-path="url(#a)"><path d="M18.543 12.763a5.45 5.45 0 0 1 2.597-4.576 5.58 5.58 0 0 0-4.399-2.378c-1.85-.194-3.645 1.107-4.588 1.107-.96 0-2.413-1.088-3.977-1.056a5.86 5.86 0 0 0-4.93 3.007c-2.13 3.69-.542 9.114 1.5 12.097 1.022 1.46 2.215 3.092 3.778 3.035 1.53-.063 2.1-.975 3.945-.975 1.828 0 2.364.975 3.958.938 1.64-.027 2.674-1.467 3.66-2.942a12 12 0 0 0 1.673-3.408 5.27 5.27 0 0 1-3.217-4.85M15.532 3.847A5.37 5.37 0 0 0 16.76 0a5.47 5.47 0 0 0-3.535 1.829 5.1 5.1 0 0 0-1.261 3.705 4.52 4.52 0 0 0 3.568-1.687"/></g><defs><clipPath id="a"><path fill="#fff" d="M0 0h24v24H0z"/></clipPath></defs></svg>
